Obsidian-SemiLight/actions/22s/view-bank.svg

<svg viewBox="0 0 22 22" xmlns="http://www.w3.org/2000/svg"><path d="m11 3-8 4.6230469v.375 1.0019531h1v1 8h-1v1h16v-1h-1v-8-1h1v-1.0019531-.375zm0 1.15625 6.650391 3.8417969h-13.3007816zm-6 4.84375h2v1 8h-2v-8zm3 0h6v1 8h-1v-4h-4v4h-1v-8zm7 0h2v1 8h-2v-8z" fill="#4d4d4d"/></svg>

<svg xmlns="http://www.w3.org/2000/svg" viewBox="0 0 22 22">
  <defs id="defs3051">
    <style type="text/css" id="current-color-scheme">
      .ColorScheme-Text {
        color:#4d4d4d;
      }
      </style>
  </defs>
 <path 
    style="fill:currentColor;fill-opacity:1;stroke:none" 
    d="M 11 3 L 3 7.6230469 L 3 7.9980469 L 3 9 L 4 9 L 4 10 L 4 18 L 3 18 L 3 19 L 19 19 L 19 18 L 18 18 L 18 10 L 18 9 L 19 9 L 19 7.9980469 L 19 7.6230469 L 11 3 z M 11 4.15625 L 17.650391 7.9980469 L 4.3496094 7.9980469 L 11 4.15625 z M 5 9 L 7 9 L 7 10 L 7 18 L 5 18 L 5 10 L 5 9 z M 8 9 L 14 9 L 14 10 L 14 18 L 13 18 L 13 14 L 9 14 L 9 18 L 8 18 L 8 10 L 8 9 z M 15 9 L 17 9 L 17 10 L 17 18 L 15 18 L 15 10 L 15 9 z "
	class="ColorScheme-Text"
    />  
</svg>
